X:42
T:Charleston No. 2
C:Narmer & Smith
N:TablEdited by Kim Davis
L:1/8
Q:1/4=225
M:4/4
K:C
z6 ee |: "C"ce cG EC DE | "F"F2 d2 d2 eg | "G"fd BG AG ED | "C"CD EF G2 cG | ce cG EC DE | 
"F"F2 d2 d2 eg | "G"fd BA GA BG |1 c2 cG c2 ed :|2 c"C"G EG c2 cd |: "C"ed ef ge cB | 
"F"A2 a2 a2 g2 | "C"ef ef ga ge | "G"dc BA G2 G2 | "C"ed ef ge cB | "F"cf ag a3c' | 
"G"za fe | fe dc BG AB |1 c2 cG c2 ed :|2 c2 c2 c4 | 


